public/img/partner-section-3.svg

<svg width="131" height="131" viewBox="0 0 131 131" fill="none" xmlns="http://www.w3.org/2000/svg">
<path d="M75.7344 20.4688H71.6406V33.0632L63.449 34.4284L63.4429 21.136H59.3491L59.3553 34.4264L51.1719 33.0632V20.4688H47.0781V36.5306L59.3553 38.5775L59.3594 47.0781H63.4531L63.449 38.5775L75.7344 36.5306V20.4688Z" fill="#394D5C"/>
<path d="M102.344 34.7969H106.438V47.0781H102.344V34.7969Z" fill="#394D5C"/>
<path d="M16.375 34.7969H20.4688V47.0781H16.375V34.7969Z" fill="#394D5C"/>
<path d="M112.578 79.8281L108.484 55.2656H96.2031V112.578H124.859V85.9688L112.578 79.8281Z" fill="#D3843D"/>
<path d="M10.2344 47.0781H112.578V55.2656H10.2344V47.0781Z" fill="#FC883A"/>
<path d="M112.578 79.8281L108.484 55.2656H96.2031V79.8281H112.578Z" fill="#CDEEF6"/>
<path d="M112.578 92.1094H124.859V85.9688L112.578 79.8281V92.1094Z" fill="#FCF05A"/>
<path d="M102.344 85.9688H106.438V90.0625H102.344V85.9688Z" fill="#F4F4E6"/>
<path d="M6.14062 104.391H14.3281V112.578H6.14062V104.391Z" fill="#BFBFBF"/>
<path d="M14.3281 55.2656H96.2031V112.578H14.3281V55.2656Z" fill="#E1462B"/>
<path d="M26.6094 71.6406H59.3594V92.1094H26.6094V71.6406Z" fill="#394D5C"/>
<path d="M63.4531 71.6406H22.5156L26.6094 63.4531H59.3594L63.4531 71.6406Z" fill="#F9AB75"/>
<path d="M96.2031 104.391H124.859V112.578H96.2031V104.391Z" fill="#BFBFBF"/>
<path d="M92.1088 16.5387C87.2577 21.6969 75.1607 24.5625 61.4057 24.5625C47.6507 24.5625 35.5332 21.6969 30.7026 16.5387C29.7973 15.3975 29.3047 13.9836 29.3047 12.5269C29.3047 11.0702 29.7973 9.65627 30.7026 8.51499C31.2375 7.8031 31.9252 7.22025 32.7152 6.80933C33.5051 6.39841 34.3772 6.1699 35.2671 6.14061C35.8156 6.12377 36.359 6.25079 36.8432 6.50905C38.2331 7.29006 39.6685 7.98724 41.1417 8.59686C42.5765 9.21939 44.0459 9.75928 45.5424 10.2139C47.184 10.7235 48.8511 11.1471 50.5368 11.483C52.0924 11.79 53.7299 12.0356 55.4084 12.2198C56.6774 12.3631 58.0079 12.445 59.3588 12.5064C60.0343 12.5064 60.7098 12.5269 61.4057 12.5269C62.1017 12.5269 62.7771 12.5064 63.4526 12.5064C64.8035 12.445 66.1135 12.3631 67.3826 12.2198H67.4031C69.102 12.0356 70.719 11.79 72.2746 11.483C73.9609 11.1496 75.6281 10.7259 77.269 10.2139C78.7625 9.75017 80.2313 9.21046 81.6698 8.59686C83.1411 7.98314 84.5762 7.28607 85.9682 6.50905C87.071 6.13407 88.2656 6.12689 89.3729 6.48858C90.4801 6.85026 91.4401 7.56131 92.1088 8.51499C93.0049 9.66034 93.4917 11.0727 93.4917 12.5269C93.4917 13.9811 93.0049 15.3934 92.1088 16.5387Z" fill="#D3843D"/>
<path d="M41.1422 8.59689C42.5771 9.21942 44.0464 9.75931 45.543 10.2139C44.8288 10.6112 44.2223 11.1768 43.7764 11.8617C43.3305 12.5466 43.0587 13.33 42.9844 14.1439H38.8906C38.9081 12.0758 39.7133 10.0921 41.1422 8.59689Z" fill="#66342E"/>
<path d="M50.5374 11.483C52.0931 11.79 53.7306 12.0356 55.409 12.2198C54.7778 12.6455 54.2524 13.2098 53.8728 13.8696C53.4932 14.5295 53.2695 15.2675 53.2189 16.027H49.1251C49.1168 14.4031 49.61 12.8161 50.5374 11.483Z" fill="#66342E"/>
<path d="M83.9219 14.1439H79.8281C79.7498 13.3312 79.4762 12.5494 79.0307 11.8652C78.5852 11.1809 77.981 10.6144 77.2695 10.2139C78.763 9.75021 80.2319 9.21049 81.6703 8.59689C83.0912 10.0973 83.8951 12.0777 83.9219 14.1439Z" fill="#66342E"/>
<path d="M73.6882 16.027H69.5945C69.5411 15.2681 69.3163 14.5312 68.937 13.8717C68.5576 13.2122 68.0336 12.6475 67.4043 12.2198C69.1032 12.0356 70.7202 11.79 72.2759 11.483C73.2033 12.8161 73.6965 14.4031 73.6882 16.027Z" fill="#66342E"/>
<path d="M63.4531 12.5064V18.4219H59.3594V12.5064C60.0348 12.5064 60.7103 12.5269 61.4062 12.5269C62.1022 12.5269 62.7777 12.5064 63.4531 12.5064Z" fill="#66342E"/>
<path d="M83.9219 47.0781L108.484 34.7969V26.6094L67.5469 47.0781H83.9219Z" fill="#FFD782"/>
<path d="M38.8906 47.0781L14.3281 34.7969V26.6094L55.2656 47.0781H38.8906Z" fill="#FFD782"/>
<path d="M34.7969 83.9219H51.1719V92.1094H34.7969V83.9219Z" fill="#F4F4E6"/>
<path d="M26.6094 79.8281H34.7969V92.1094H26.6094V79.8281Z" fill="#F9BB4B"/>
<path d="M71.6406 63.4531H88.0156V96.2031H71.6406V63.4531Z" fill="#F9AB75"/>
<path d="M77.7812 69.5938H81.875V73.6875H77.7812V69.5938Z" fill="#F4F4E6"/>
<path d="M77.7812 77.7812H81.875V81.875H77.7812V77.7812Z" fill="#F4F4E6"/>
<path d="M77.7812 85.9688H81.875V90.0625H77.7812V85.9688Z" fill="#F4F4E6"/>
<path d="M65.5 106.438H61.4062V102.344H49.125V98.25H65.5V106.438Z" fill="#F4F4E6"/>
<path d="M20.4688 90.0625H65.5V94.1562H20.4688V90.0625Z" fill="#F9AB75"/>
<path d="M34.7969 124.859C41.5796 124.859 47.0781 119.361 47.0781 112.578C47.0781 105.795 41.5796 100.297 34.7969 100.297C28.0141 100.297 22.5156 105.795 22.5156 112.578C22.5156 119.361 28.0141 124.859 34.7969 124.859Z" fill="#394D5C"/>
<path d="M34.7969 116.672C37.0578 116.672 38.8906 114.839 38.8906 112.578C38.8906 110.317 37.0578 108.484 34.7969 108.484C32.536 108.484 30.7031 110.317 30.7031 112.578C30.7031 114.839 32.536 116.672 34.7969 116.672Z" fill="#FCF05A"/>
<path d="M96.2031 124.859C102.986 124.859 108.484 119.361 108.484 112.578C108.484 105.795 102.986 100.297 96.2031 100.297C89.4204 100.297 83.9219 105.795 83.9219 112.578C83.9219 119.361 89.4204 124.859 96.2031 124.859Z" fill="#394D5C"/>
<path d="M96.2031 116.672C98.464 116.672 100.297 114.839 100.297 112.578C100.297 110.317 98.464 108.484 96.2031 108.484C93.9422 108.484 92.1094 110.317 92.1094 112.578C92.1094 114.839 93.9422 116.672 96.2031 116.672Z" fill="#FCF05A"/>
</svg>

<svg width="131" height="131" fill="none" xmlns="http://www.w3.org/2000/svg"><path d="M75.734 20.469h-4.093v12.594l-8.192 1.365-.006-13.292h-4.094l.006 13.29-8.183-1.363V20.47h-4.094v16.06l12.277 2.047.004 8.5h4.094l-.004-8.5 12.285-2.047V20.469zm26.61 14.328h4.094v12.281h-4.094V34.797zm-85.969 0h4.094v12.281h-4.094V34.797z" fill="#394D5C"/><path d="M112.578 79.828l-4.094-24.562h-12.28v57.312h28.655v-26.61l-12.281-6.14z" fill="#D3843D"/><path d="M10.234 47.078h102.344v8.188H10.234v-8.188z" fill="#FC883A"/><path d="M112.578 79.828l-4.094-24.562h-12.28v24.562h16.374z" fill="#CDEEF6"/><path d="M112.578 92.11h12.281v-6.141l-12.281-6.14v12.28z" fill="#FCF05A"/><path d="M102.344 85.969h4.094v4.094h-4.094v-4.094z" fill="#F4F4E6"/><path d="M6.14 104.391h8.188v8.187H6.141v-8.187z" fill="#BFBFBF"/><path d="M14.328 55.266h81.875v57.312H14.328V55.266z" fill="#E1462B"/><path d="M26.61 71.64h32.75v20.47H26.61V71.64z" fill="#394D5C"/><path d="M63.453 71.64H22.516l4.093-8.187h32.75l4.094 8.188z" fill="#F9AB75"/><path d="M96.203 104.391h28.656v8.187H96.203v-8.187z" fill="#BFBFBF"/><path d="M92.109 16.539c-4.851 5.158-16.948 8.023-30.703 8.023-13.755 0-25.873-2.865-30.703-8.023a6.455 6.455 0 010-8.024 5.954 5.954 0 014.564-2.374 3.144 3.144 0 011.576.368 39.981 39.981 0 004.299 2.088 40.992 40.992 0 004.4 1.617c1.642.51 3.31.933 4.995 1.269a57.79 57.79 0 004.871.737c1.27.143 2.6.225 3.95.286.676 0 1.352.02 2.048.02s1.371-.02 2.047-.02c1.35-.061 2.66-.143 3.93-.286h.02a56.65 56.65 0 004.872-.737 48.068 48.068 0 004.994-1.27 45.928 45.928 0 004.4-1.616 41.964 41.964 0 004.3-2.088 5.383 5.383 0 016.14 2.006 6.51 6.51 0 010 8.024z" fill="#D3843D"/><path d="M41.142 8.597a40.987 40.987 0 004.401 1.617 5.02 5.02 0 00-2.559 3.93h-4.093a8.128 8.128 0 012.251-5.547zm9.395 2.886c1.556.307 3.194.553 4.872.737a4.993 4.993 0 00-2.19 3.807h-4.094a7.886 7.886 0 011.412-4.544zm33.385 2.661h-4.094a5.067 5.067 0 00-2.559-3.93 45.907 45.907 0 004.401-1.617 8.222 8.222 0 012.252 5.547zm-10.234 1.883h-4.094a5.031 5.031 0 00-2.19-3.807 56.659 56.659 0 004.872-.737 7.886 7.886 0 011.412 4.544zm-10.235-3.521v5.916H59.36v-5.916c.676 0 1.351.02 2.047.02.696 0 1.372-.02 2.047-.02z" fill="#66342E"/><path d="M83.922 47.078l24.562-12.281v-8.188L67.547 47.08h16.375zm-45.032 0L14.329 34.797v-8.188l40.938 20.47H38.89z" fill="#FFD782"/><path d="M34.797 83.922h16.375v8.187H34.797v-8.187z" fill="#F4F4E6"/><path d="M26.61 79.828h8.187V92.11h-8.188V79.83z" fill="#F9BB4B"/><path d="M71.64 63.453h16.376v32.75H71.64v-32.75z" fill="#F9AB75"/><path d="M77.781 69.594h4.094v4.094h-4.094v-4.094zm0 8.187h4.094v4.094h-4.094v-4.094zm0 8.188h4.094v4.094h-4.094v-4.094zM65.5 106.438h-4.094v-4.094H49.125V98.25H65.5v8.188z" fill="#F4F4E6"/><path d="M20.469 90.063H65.5v4.093H20.469v-4.094z" fill="#F9AB75"/><path d="M34.797 124.859c6.783 0 12.281-5.498 12.281-12.281s-5.498-12.281-12.281-12.281-12.281 5.498-12.281 12.281 5.498 12.281 12.28 12.281z" fill="#394D5C"/><path d="M34.797 116.672a4.094 4.094 0 100-8.188 4.094 4.094 0 000 8.188z" fill="#FCF05A"/><path d="M96.203 124.859c6.783 0 12.281-5.498 12.281-12.281s-5.498-12.281-12.28-12.281c-6.784 0-12.282 5.498-12.282 12.281s5.498 12.281 12.281 12.281z" fill="#394D5C"/><path d="M96.203 116.672a4.094 4.094 0 100-8.188 4.094 4.094 0 000 8.188z" fill="#FCF05A"/></svg>
